test/backend/assets/sidecar/flatxmp.xmp
<?xpacket begin="﻿" id="W5M0MpCehiHzreSzNTczkc9d"?>
<x:xmpmeta xmlns:x="adobe:ns:meta/" x:xmptk="Adobe XMP Core 7.0-c000 1.000000, 0000/00/00-00:00:00        ">
 <rdf:RDF xmlns:rdf="http://www.w3.org/1999/02/22-rdf-syntax-ns#">
  <rdf:Description rdf:about=""
    xmlns:xmp="http://ns.adobe.com/xap/1.0/"
    xmlns:aux="http://ns.adobe.com/exif/1.0/aux/"
    xmlns:crs="http://ns.adobe.com/camera-raw-settings/1.0/"
    xmlns:photoshop="http://ns.adobe.com/photoshop/1.0/"
    xmlns:xmpMM="http://ns.adobe.com/xap/1.0/mm/"
    xmlns:stRef="http://ns.adobe.com/xap/1.0/sType/ResourceRef#"
    xmlns:stEvt="http://ns.adobe.com/xap/1.0/sType/ResourceEvent#"
    xmlns:dc="http://purl.org/dc/elements/1.1/"
    xmlns:xmpRights="http://ns.adobe.com/xap/1.0/rights/"
    xmlns:xmpDM="http://ns.adobe.com/xmp/1.0/DynamicMedia/"
    xmlns:tiff="http://ns.adobe.com/tiff/1.0/"
    xmlns:exif="http://ns.adobe.com/exif/1.0/"
    xmlns:Iptc4xmpCore="http://iptc.org/std/Iptc4xmpCore/1.0/xmlns/"
    xmlns:Iptc4xmpExt="http://iptc.org/std/Iptc4xmpExt/2008-02-29/"
    xmlns:lr="http://ns.adobe.com/lightroom/1.0/"
    xmlns:mwg-rs="http://www.metadataworkinggroup.com/schemas/regions/"
    xmlns:stDim="http://ns.adobe.com/xap/1.0/sType/Dimensions#"
    xmlns:stArea="http://ns.adobe.com/xmp/sType/Area#"
   xmp:ModifyDate="2024-03-22T19:09:41-05:00"
   xmp:CreatorTool="Adobe Photoshop Lightroom 13.2 Classic (Windows)"
   xmp:CreateDate="2007-07-29T18:19:58"
   xmp:MetadataDate="2024-03-23T01:17:49-05:00"
   aux:LensInfo="280/10 800/10 28/10 28/10"
   aux:Lens="28.0-80.0 mm f/2.8"
   aux:ImageNumber="4244"
   crs:Version="3.7"
   crs:RawFileName="flatxmp.png"
   crs:WhiteBalance="Custom"
   crs:Temperature="4150"
   crs:Tint="+32"
   crs:Exposure="-0.35"
   crs:Shadows="32"
   crs:Brightness="+50"
   crs:Contrast="+58"
   crs:Saturation="-24"
   crs:Sharpness="25"
   crs:LuminanceSmoothing="0"
   crs:ColorNoiseReduction="25"
   crs:ChromaticAberrationR="0"
   crs:ChromaticAberrationB="0"
   crs:VignetteAmount="0"
   crs:ShadowTint="0"
   crs:RedHue="0"
   crs:RedSaturation="0"
   crs:GreenHue="0"
   crs:GreenSaturation="0"
   crs:BlueHue="0"
   crs:BlueSaturation="0"
   crs:FillLight="0"
   crs:Vibrance="0"
   crs:HighlightRecovery="0"
   crs:HueAdjustmentRed="0"
   crs:HueAdjustmentOrange="0"
   crs:HueAdjustmentYellow="0"
   crs:HueAdjustmentGreen="0"
   crs:HueAdjustmentAqua="0"
   crs:HueAdjustmentBlue="0"
   crs:HueAdjustmentPurple="0"
   crs:HueAdjustmentMagenta="0"
   crs:SaturationAdjustmentRed="0"
   crs:SaturationAdjustmentOrange="0"
   crs:SaturationAdjustmentYellow="0"
   crs:SaturationAdjustmentGreen="0"
   crs:SaturationAdjustmentAqua="0"
   crs:SaturationAdjustmentBlue="0"
   crs:SaturationAdjustmentPurple="0"
   crs:SaturationAdjustmentMagenta="0"
   crs:LuminanceAdjustmentRed="0"
   crs:LuminanceAdjustmentOrange="0"
   crs:LuminanceAdjustmentYellow="0"
   crs:LuminanceAdjustmentGreen="0"
   crs:LuminanceAdjustmentAqua="0"
   crs:LuminanceAdjustmentBlue="0"
   crs:LuminanceAdjustmentPurple="0"
   crs:LuminanceAdjustmentMagenta="0"
   crs:SplitToningShadowHue="0"
   crs:SplitToningShadowSaturation="0"
   crs:SplitToningHighlightHue="0"
   crs:SplitToningHighlightSaturation="0"
   crs:SplitToningBalance="0"
   crs:ParametricShadows="0"
   crs:ParametricDarks="0"
   crs:ParametricLights="0"
   crs:ParametricHighlights="0"
   crs:ParametricShadowSplit="25"
   crs:ParametricMidtoneSplit="50"
   crs:ParametricHighlightSplit="75"
   crs:ConvertToGrayscale="False"
   crs:ToneCurveName="Medium Contrast"
   crs:CameraProfile="ACR 3.3"
   crs:HasSettings="True"
   crs:HasCrop="False"
   crs:AlreadyApplied="True"
   photoshop:DateCreated="1980-06-02T18:19:58-06:00"
   photoshop:AuthorsPosition="Upright"
   photoshop:Headline="PhotoshopHeadline"
   xmpMM:DocumentID="adobe:docid:photoshop:cafebabe-79a5-014d-8584-460dcfb4c5f7"
   xmpMM:InstanceID="xmp.iid:cafebabe-5011-ca47-999e-b8a670bcd3f0"
   xmpMM:OriginalDocumentID="uuid:E494197C283EDC11BDB3DC8D57BE7817"
   xmpMM:PreservedFileName="flatxmpold.jpg"
   dc:format="image/jpeg"
   xmpRights:Marked="True"
   xmpDM:pick="0"
   tiff:Orientation="1"
   tiff:Make="Cam Make"
   tiff:Model="Cam Model"
   exif:ExifVersion="0221"
   exif:ColorSpace="1"
   exif:DateTimeOriginal="1980-06-02T18:19:58"
   exif:ExposureTime="1/8"
   exif:FNumber="28/10"
   exif:ExposureProgram="2"
   exif:ShutterSpeedValue="3/1"
   exif:ApertureValue="2970854/1000000"
   exif:ExposureBiasValue="6/6"
   exif:MaxApertureValue="30/10"
   exif:MeteringMode="3"
   exif:LightSource="0"
   exif:FocalLength="280/10"
   exif:SensingMethod="2"
   exif:FileSource="3"
   exif:SceneType="1"
   exif:CustomRendered="0"
   exif:ExposureMode="0"
   exif:WhiteBalance="0"
   exif:DigitalZoomRatio="1/1"
   exif:FocalLengthIn35mmFilm="42"
   exif:SceneCaptureType="0"
   exif:GainControl="1"
   exif:Contrast="0"
   exif:Saturation="0"
   exif:Sharpness="0"
   exif:SubjectDistanceRange="0"
   exif:SubSecTime="24"
   exif:SubSecTimeOriginal="24"
   exif:SubSecTimeDigitized="24">
   <crs:ToneCurve>
    <rdf:Seq>
     <rdf:li>0, 0</rdf:li>
     <rdf:li>32, 22</rdf:li>
     <rdf:li>64, 56</rdf:li>
     <rdf:li>128, 128</rdf:li>
     <rdf:li>192, 196</rdf:li>
     <rdf:li>255, 255</rdf:li>
    </rdf:Seq>
   </crs:ToneCurve>
   <xmpMM:DerivedFrom
    stRef:instanceID="xmp.iid:cafebabe-09ec-c04f-8eb1-4c3b937c6767"
    stRef:documentID="uuid:CAFEBABE283EDC11BDB3DC8D57BE7817"
    stRef:originalDocumentID="uuid:CAFEBABE283EDC11BDB3DC8D57BE7817"/>
   <xmpMM:History>
    <rdf:Seq>
     <rdf:li
      stEvt:action="saved"
      stEvt:instanceID="xmp.iid:cafebabe-09ec-c04f-8eb1-4c3b937c6767"
      stEvt:when="2012-08-01T13:47-05:00"
      stEvt:softwareAgent="Adobe Photoshop 23.4 (Windows)"
      stEvt:changed="/"/>
     <rdf:li
      stEvt:action="converted"
      stEvt:parameters="from image/png to image/jpeg"/>
     <rdf:li
      stEvt:action="derived"
      stEvt:parameters="converted from image/jpeg to image/png"/>
     <rdf:li
      stEvt:action="saved"
      stEvt:instanceID="xmp.iid:cafebabe-2209-e74b-a333-4e0bcc3908cf"
      stEvt:when="2012-08-01T13:47-05:00"
      stEvt:softwareAgent="Adobe Photoshop 23.4 (Windows)"
      stEvt:changed="/"/>
     <rdf:li
      stEvt:action="saved"
      stEvt:instanceID="xmp.iid:cafebabe-8bb1-654f-8e02-98d4ff5353b0"
      stEvt:when="2014-03-20T21:35-05:00"
      stEvt:softwareAgent="Adobe Photoshop Lightroom Classic 13.2 (Windows)"
      stEvt:changed="/metadata"/>
     <rdf:li
      stEvt:action="saved"
      stEvt:instanceID="xmp.iid:22b1a311-0788-b548-93b1-cbef983cab9a"
      stEvt:when="2024-03-22T01:35:03-05:00"
      stEvt:softwareAgent="Adobe Photoshop Lightroom Classic 13.2 (Windows)"
      stEvt:changed="/metadata"/>
     <rdf:li
      stEvt:action="saved"
      stEvt:instanceID="xmp.iid:cafebabe-634f-d042-ac1f-1fa6e4a076bd"
      stEvt:when="2014-03-22T19:09:41-05:00"
      stEvt:softwareAgent="Adobe Photoshop 25.5 (Windows)"
      stEvt:changed="/"/>
     <rdf:li
      stEvt:action="saved"
      stEvt:instanceID="xmp.iid:cafebabe-82ff-8845-ae3d-820fa91c7231"
      stEvt:when="2014-03-22T19:09:41-05:00"
      stEvt:softwareAgent="Adobe Photoshop 25.5 (Windows)"
      stEvt:changed="/"/>
     <rdf:li
      stEvt:action="saved"
      stEvt:instanceID="xmp.iid:cafebabe-5011-ca47-999e-b8a670bcd3f0"
      stEvt:when="2014-03-23T01:17:49-05:00"
      stEvt:softwareAgent="Adobe Photoshop Lightroom Classic 13.2 (Windows)"
      stEvt:changed="/metadata"/>
    </rdf:Seq>
   </xmpMM:History>
   <dc:creator>
    <rdf:Seq>
     <rdf:li>Digitized By Testmaster</rdf:li>
    </rdf:Seq>
   </dc:creator>
   <dc:title>
    <rdf:Alt>
     <rdf:li xml:lang="x-default">The title</rdf:li>
    </rdf:Alt>
   </dc:title>
   <dc:rights>
    <rdf:Alt>
     <rdf:li xml:lang="x-default">© Testmaster 2024</rdf:li>
    </rdf:Alt>
   </dc:rights>
   <dc:subject>
    <rdf:Bag>
     <rdf:li>Person1</rdf:li>
     <rdf:li>Person2</rdf:li>
     <rdf:li>Thing3</rdf:li>
    </rdf:Bag>
   </dc:subject>
   <dc:description>
    <rdf:Alt>
     <rdf:li xml:lang="x-default">Description of image</rdf:li>
    </rdf:Alt>
   </dc:description>
   <xmpRights:UsageTerms>
    <rdf:Alt>
     <rdf:li xml:lang="x-default">All Rights Reserved</rdf:li>
    </rdf:Alt>
   </xmpRights:UsageTerms>
   <exif:UserComment>
    <rdf:Alt>
     <rdf:li xml:lang="x-default">User comment</rdf:li>
    </rdf:Alt>
   </exif:UserComment>
   <exif:ISOSpeedRatings>
    <rdf:Seq>
     <rdf:li>400</rdf:li>
    </rdf:Seq>
   </exif:ISOSpeedRatings>
   <exif:Flash
    exif:Fired="False"
    exif:Return="0"
    exif:Mode="0"
    exif:Function="False"
    exif:RedEyeMode="False"/>
   <Iptc4xmpCore:CreatorContactInfo
    Iptc4xmpCore:CiAdrPcode="6666"
    Iptc4xmpCore:CiTelWork="+123456"
    Iptc4xmpCore:CiAdrRegion="TestRegion"
    Iptc4xmpCore:CiAdrCtry="TestCounty"
    Iptc4xmpCore:CiAdrCity="TestCity"
    Iptc4xmpCore:CiEmailWork="example@example.com"
    Iptc4xmpCore:CiUrlWork="http://www.example.com"
    Iptc4xmpCore:CiAdrExtadr="7357 Testroad"/>
   <Iptc4xmpCore:AltTextAccessibility>
    <rdf:Alt>
     <rdf:li xml:lang="x-default">alt text</rdf:li>
    </rdf:Alt>
   </Iptc4xmpCore:AltTextAccessibility>
   <Iptc4xmpCore:ExtDescrAccessibility>
    <rdf:Alt>
     <rdf:li xml:lang="x-default">extended description</rdf:li>
    </rdf:Alt>
   </Iptc4xmpCore:ExtDescrAccessibility>
   <Iptc4xmpExt:PersonInImage>
    <rdf:Bag>
     <rdf:li>Person1</rdf:li>
     <rdf:li>Person2</rdf:li>
    </rdf:Bag>
   </Iptc4xmpExt:PersonInImage>
   <lr:weightedFlatSubject>
    <rdf:Bag>
     <rdf:li>Person1</rdf:li>
     <rdf:li>Person2</rdf:li>
    </rdf:Bag>
   </lr:weightedFlatSubject>
   <lr:hierarchicalSubject>
    <rdf:Bag>
     <rdf:li>Person1</rdf:li>
     <rdf:li>Person2</rdf:li>
    </rdf:Bag>
   </lr:hierarchicalSubject>
   <mwg-rs:Regions rdf:parseType="Resource">
    <mwg-rs:AppliedToDimensions
     stDim:w="3144"
     stDim:h="2288"
     stDim:unit="pixel"/>
    <mwg-rs:RegionList>
     <rdf:Bag>
      <rdf:li>
       <rdf:Description
        mwg-rs:Rotation="0.00000"
        mwg-rs:Name="Person1"
        mwg-rs:Type="Face">
       <mwg-rs:Area
        stArea:h="0.28188"
        stArea:w="0.20508"
        stArea:x="0.71289"
        stArea:y="0.37987"/>
       </rdf:Description>
      </rdf:li>
      <rdf:li>
       <rdf:Description
        mwg-rs:Rotation="0.00000"
        mwg-rs:Name="Person2"
        mwg-rs:Type="Face">
       <mwg-rs:Area
        stArea:h="0.31007"
        stArea:w="0.22559"
        stArea:x="0.28564"
        stArea:y="0.32685"/>
       </rdf:Description>
      </rdf:li>
     </rdf:Bag>
    </mwg-rs:RegionList>
   </mwg-rs:Regions>
  </rdf:Description>
 </rdf:RDF>
</x:xmpmeta>
<?xpacket end="r"?>